X:2
T: Saint Sonnet
M: 4/4
K: Em
%% alignbars 4
||:"Em"B2 B2 A3G | FGAB E4 | "C"EFGA B2 AB | "D"d2 e2 B4 |
"Em"B2 B2 A3G | FGAB E4 | "C"EFGA B2 AG | "G"FGAB "C"E4 :||
||:"Em"B2 GB cGBc | "C"B2 GB cGBc | "D"F3 B cFBc | "Bm"F3 B cFBc |
"Em"B2 GB cGBc | "C"B2 GB cGBc | "D"F3 c "G"BAGF | "C"EFGF E3 A :||

%%newpage

